X:1
T:[ID 2-41a]
T:[ID 2-41a]
T:Bezeichnung standardisiert: Polonaise nach Blitz; Polonoise 13. In dieser Quelle auch als: Polonaise In dieser Quelle auch als: Polonoise Nach Blitz In dieser Quelle auch als: Polon\"aise In anderer Quelle: Polonoise - Hs. \"OVLA E-97/E-149 um 1750 (Anm. S. Wascher);  Polonaise, Niederschrift L. Mozart 1762 (Anm. S. Wascher);
T:Urheber unbekannt Erstbeleg: um 1750 (Wissenschaftliche Sch\"atzung Erstbeleg: 1767 (Datum in der schriftlichen Quelle) Datum in der hier transkribierten schriftlichen Quelle: 1775
C:Urheber unbekannt
C:Erstbeleg: um 1750 (Wissenschaftliche Sch\"atzung
C:Erstbeleg: 1767 (Datum in der schriftlichen Quelle)
C:Datum in der hier transkribierten schriftlichen Quelle: 1775
L:1/8
M:3/4
K:D
V:1 treble 
V:1
 F2 F2 F2 | cc c/d/e/c/ d2 | cc c/d/e/c/ d2 | eg gf/e/ fd | ce ed/c/ dF | E/F/G/E/ F2 F2 :: %6
 c2 c2 e2 | dd d/f/e/d/ c2 | c2 c2 e2 | dd d/f/e/d/ c2 | eg gf/e/ fd | ce ed/c/ dF | %12
 E/F/G/E/ F2 F2 :| %13

